images/5459732.svg

<?xml version="1.0" encoding="UTF-8"?>
<svg xmlns="http://www.w3.org/2000/svg" xmlns:xlink="http://www.w3.org/1999/xlink" width="300pt" height="300pt" viewBox="0 0 300 300" version="1.1">
<defs>
<g>
<symbol overflow="visible" id="glyph0-0">
<path style="stroke:none;" d="M 0.546875 1.9375 L 0.546875 -7.75 L 6.046875 -7.75 L 6.046875 1.9375 Z M 1.171875 1.328125 L 5.4375 1.328125 L 5.4375 -7.140625 L 1.171875 -7.140625 Z M 1.171875 1.328125 "/>
</symbol>
<symbol overflow="visible" id="glyph0-1">
<path style="stroke:none;" d="M 1.078125 -8.015625 L 2.546875 -8.015625 L 6.09375 -1.3125 L 6.09375 -8.015625 L 7.15625 -8.015625 L 7.15625 0 L 5.6875 0 L 2.125 -6.703125 L 2.125 0 L 1.078125 0 Z M 1.078125 -8.015625 "/>
</symbol>
<symbol overflow="visible" id="glyph0-2">
<path style="stroke:none;" d="M 4.328125 -7.28125 C 3.546875 -7.28125 2.921875 -6.984375 2.453125 -6.390625 C 1.992188 -5.804688 1.765625 -5.007812 1.765625 -4 C 1.765625 -2.988281 1.992188 -2.1875 2.453125 -1.59375 C 2.921875 -1.007812 3.546875 -0.71875 4.328125 -0.71875 C 5.117188 -0.71875 5.742188 -1.007812 6.203125 -1.59375 C 6.660156 -2.1875 6.890625 -2.988281 6.890625 -4 C 6.890625 -5.007812 6.660156 -5.804688 6.203125 -6.390625 C 5.742188 -6.984375 5.117188 -7.28125 4.328125 -7.28125 Z M 4.328125 -8.171875 C 5.453125 -8.171875 6.351562 -7.789062 7.03125 -7.03125 C 7.707031 -6.28125 8.046875 -5.269531 8.046875 -4 C 8.046875 -2.738281 7.707031 -1.726562 7.03125 -0.96875 C 6.351562 -0.21875 5.453125 0.15625 4.328125 0.15625 C 3.203125 0.15625 2.300781 -0.21875 1.625 -0.96875 C 0.957031 -1.71875 0.625 -2.726562 0.625 -4 C 0.625 -5.269531 0.957031 -6.28125 1.625 -7.03125 C 2.300781 -7.789062 3.203125 -8.171875 4.328125 -8.171875 Z M 4.328125 -8.171875 "/>
</symbol>
<symbol overflow="visible" id="glyph0-3">
<path style="stroke:none;" d="M 1.078125 -8.015625 L 2.171875 -8.015625 L 2.171875 -4.734375 L 6.109375 -4.734375 L 6.109375 -8.015625 L 7.1875 -8.015625 L 7.1875 0 L 6.109375 0 L 6.109375 -3.8125 L 2.171875 -3.8125 L 2.171875 0 L 1.078125 0 Z M 1.078125 -8.015625 "/>
</symbol>
</g>
</defs>
<g id="surface33505">
<rect x="0" y="0" width="300" height="300" style="fill:rgb(100%,100%,100%);fill-opacity:1;stroke:none;"/>
<path style=" stroke:none;fill-rule:nonzero;fill:rgb(0%,0%,0%);fill-opacity:1;" d="M 178.410156 104.203125 L 203.910156 98.679688 L 200.480469 90.285156 Z M 178.410156 104.203125 "/>
<path style="fill:none;stroke-width:1.2;stroke-linecap:butt;stroke-linejoin:miter;stroke:rgb(0%,0%,0%);stroke-opacity:1;stroke-miterlimit:10;" d="M 178.410156 104.203125 L 156.5625 90.671875 "/>
<path style="fill:none;stroke-width:1.2;stroke-linecap:butt;stroke-linejoin:miter;stroke:rgb(0%,0%,100%);stroke-opacity:1;stroke-miterlimit:10;" d="M 172.289062 129.160156 L 175.347656 116.679688 "/>
<path style="fill:none;stroke-width:1.2;stroke-linecap:butt;stroke-linejoin:miter;stroke:rgb(0%,0%,0%);stroke-opacity:1;stroke-miterlimit:10;" d="M 175.347656 116.679688 L 178.410156 104.203125 "/>
<path style="fill:none;stroke-width:1.2;stroke-linecap:butt;stroke-linejoin:miter;stroke:rgb(0%,0%,0%);stroke-opacity:1;stroke-miterlimit:10;" d="M 156.5625 90.671875 L 136.945312 107.265625 "/>
<path style="fill:none;stroke-width:1.2;stroke-linecap:butt;stroke-linejoin:miter;stroke:rgb(0%,0%,0%);stroke-opacity:1;stroke-miterlimit:10;" d="M 158.507812 96.945312 L 142.808594 110.222656 "/>
<path style="fill:none;stroke-width:1.2;stroke-linecap:butt;stroke-linejoin:miter;stroke:rgb(0%,0%,0%);stroke-opacity:1;stroke-miterlimit:10;" d="M 136.945312 107.265625 L 146.664062 131.050781 "/>
<path style="fill:none;stroke-width:1.2;stroke-linecap:butt;stroke-linejoin:miter;stroke:rgb(0%,0%,0%);stroke-opacity:1;stroke-miterlimit:10;" d="M 146.664062 131.050781 L 159.476562 130.105469 "/>
<path style="fill:none;stroke-width:1.2;stroke-linecap:butt;stroke-linejoin:miter;stroke:rgb(0%,0%,100%);stroke-opacity:1;stroke-miterlimit:10;" d="M 159.476562 130.105469 L 172.289062 129.160156 "/>
<path style="fill:none;stroke-width:1;stroke-linecap:butt;stroke-linejoin:miter;stroke:rgb(0%,0%,0%);stroke-opacity:1;stroke-miterlimit:10;" d="M 146.664062 131.050781 L 146.664062 131.050781 M 146.675781 134.050781 L 147.699219 133.867188 M 146.683594 137.050781 L 148.738281 136.683594 M 146.695312 140.050781 L 149.773438 139.496094 M 146.707031 143.050781 L 150.8125 142.3125 M 146.71875 146.050781 L 151.851562 145.128906 M 146.730469 149.050781 L 152.886719 147.941406 M 146.742188 152.050781 L 153.925781 150.757812 M 146.753906 155.050781 L 154.960938 153.570312 M 146.761719 157.144531 L 155.6875 155.535156 "/>
<path style="fill:none;stroke-width:1.2;stroke-linecap:butt;stroke-linejoin:miter;stroke:rgb(0%,0%,0%);stroke-opacity:1;stroke-miterlimit:10;" d="M 146.664062 131.050781 L 121.988281 138.230469 "/>
<path style="fill:none;stroke-width:1.2;stroke-linecap:butt;stroke-linejoin:miter;stroke:rgb(0%,0%,100%);stroke-opacity:1;stroke-miterlimit:10;" d="M 172.289062 129.160156 L 180.585938 138.96875 "/>
<path style="fill:none;stroke-width:1.2;stroke-linecap:butt;stroke-linejoin:miter;stroke:rgb(0%,0%,0%);stroke-opacity:1;stroke-miterlimit:10;" d="M 180.585938 138.96875 L 188.882812 148.78125 "/>
<path style=" stroke:none;fill-rule:nonzero;fill:rgb(100%,100%,100%);fill-opacity:1;" d="M 168.289062 122.660156 L 176.289062 122.660156 L 176.289062 135.660156 L 168.289062 135.660156 Z M 168.289062 122.660156 "/>
<g style="fill:rgb(0%,0%,100%);fill-opacity:1;">
  <use xlink:href="#glyph0-1" x="168.289062" y="132.561523"/>
</g>
<path style="fill:none;stroke-width:1.2;stroke-linecap:butt;stroke-linejoin:miter;stroke:rgb(0%,0%,0%);stroke-opacity:1;stroke-miterlimit:10;" d="M 186.039062 147.757812 L 181.691406 159.847656 "/>
<path style="fill:none;stroke-width:1.2;stroke-linecap:butt;stroke-linejoin:miter;stroke:rgb(100%,0%,0%);stroke-opacity:1;stroke-miterlimit:10;" d="M 181.691406 159.847656 L 177.34375 171.9375 "/>
<path style="fill:none;stroke-width:1.2;stroke-linecap:butt;stroke-linejoin:miter;stroke:rgb(0%,0%,0%);stroke-opacity:1;stroke-miterlimit:10;" d="M 191.730469 149.804688 L 187.382812 161.894531 "/>
<path style="fill:none;stroke-width:1.2;stroke-linecap:butt;stroke-linejoin:miter;stroke:rgb(100%,0%,0%);stroke-opacity:1;stroke-miterlimit:10;" d="M 187.382812 161.894531 L 183.035156 173.984375 "/>
<path style="fill:none;stroke-width:1.2;stroke-linecap:butt;stroke-linejoin:miter;stroke:rgb(0%,0%,0%);stroke-opacity:1;stroke-miterlimit:10;" d="M 188.882812 148.78125 L 214.171875 144.21875 "/>
<path style=" stroke:none;fill-rule:nonzero;fill:rgb(100%,100%,100%);fill-opacity:1;" d="M 171.191406 166.460938 L 180.191406 166.460938 L 180.191406 179.460938 L 171.191406 179.460938 Z M 171.191406 166.460938 "/>
<g style="fill:rgb(100%,0%,0%);fill-opacity:1;">
  <use xlink:href="#glyph0-2" x="171.191406" y="176.362305"/>
</g>
<path style="fill:none;stroke-width:1.2;stroke-linecap:butt;stroke-linejoin:miter;stroke:rgb(0%,0%,0%);stroke-opacity:1;stroke-miterlimit:10;" d="M 214.171875 144.21875 L 230.765625 163.839844 "/>
<path style="fill:none;stroke-width:1.2;stroke-linecap:butt;stroke-linejoin:miter;stroke:rgb(0%,0%,0%);stroke-opacity:1;stroke-miterlimit:10;" d="M 220.449219 142.277344 L 233.722656 157.972656 "/>
<path style="fill:none;stroke-width:1.2;stroke-linecap:butt;stroke-linejoin:miter;stroke:rgb(0%,0%,0%);stroke-opacity:1;stroke-miterlimit:10;" d="M 222.867188 120.039062 L 214.171875 144.21875 "/>
<path style="fill:none;stroke-width:1.2;stroke-linecap:butt;stroke-linejoin:miter;stroke:rgb(0%,0%,0%);stroke-opacity:1;stroke-miterlimit:10;" d="M 230.765625 163.839844 L 256.054688 159.277344 "/>
<path style="fill:none;stroke-width:1.2;stroke-linecap:butt;stroke-linejoin:miter;stroke:rgb(0%,0%,0%);stroke-opacity:1;stroke-miterlimit:10;" d="M 256.054688 159.277344 L 264.75 135.097656 "/>
<path style="fill:none;stroke-width:1.2;stroke-linecap:butt;stroke-linejoin:miter;stroke:rgb(0%,0%,0%);stroke-opacity:1;stroke-miterlimit:10;" d="M 251.234375 154.816406 L 258.191406 135.46875 "/>
<path style="fill:none;stroke-width:1.2;stroke-linecap:butt;stroke-linejoin:miter;stroke:rgb(0%,0%,0%);stroke-opacity:1;stroke-miterlimit:10;" d="M 264.75 135.097656 L 248.15625 115.476562 "/>
<path style="fill:none;stroke-width:1.2;stroke-linecap:butt;stroke-linejoin:miter;stroke:rgb(0%,0%,0%);stroke-opacity:1;stroke-miterlimit:10;" d="M 248.15625 115.476562 L 222.867188 120.039062 "/>
<path style="fill:none;stroke-width:1.2;stroke-linecap:butt;stroke-linejoin:miter;stroke:rgb(0%,0%,0%);stroke-opacity:1;stroke-miterlimit:10;" d="M 246.699219 121.882812 L 226.46875 125.53125 "/>
<path style="fill:none;stroke-width:1.2;stroke-linecap:butt;stroke-linejoin:miter;stroke:rgb(0%,0%,0%);stroke-opacity:1;stroke-miterlimit:10;" d="M 151.222656 156.339844 L 131.601562 172.933594 "/>
<path style="fill:none;stroke-width:1.2;stroke-linecap:butt;stroke-linejoin:miter;stroke:rgb(0%,0%,0%);stroke-opacity:1;stroke-miterlimit:10;" d="M 131.601562 172.933594 L 136.164062 198.222656 "/>
<path style="fill:none;stroke-width:1.2;stroke-linecap:butt;stroke-linejoin:miter;stroke:rgb(0%,0%,0%);stroke-opacity:1;stroke-miterlimit:10;" d="M 126.109375 176.539062 L 129.757812 196.769531 "/>
<path style="fill:none;stroke-width:1.2;stroke-linecap:butt;stroke-linejoin:miter;stroke:rgb(0%,0%,0%);stroke-opacity:1;stroke-miterlimit:10;" d="M 107.421875 164.242188 L 131.601562 172.933594 "/>
<path style="fill:none;stroke-width:1.2;stroke-linecap:butt;stroke-linejoin:miter;stroke:rgb(0%,0%,0%);stroke-opacity:1;stroke-miterlimit:10;" d="M 136.164062 198.222656 L 116.542969 214.820312 "/>
<path style="fill:none;stroke-width:1.2;stroke-linecap:butt;stroke-linejoin:miter;stroke:rgb(0%,0%,0%);stroke-opacity:1;stroke-miterlimit:10;" d="M 116.542969 214.820312 L 92.363281 206.125 "/>
<path style="fill:none;stroke-width:1.2;stroke-linecap:butt;stroke-linejoin:miter;stroke:rgb(0%,0%,0%);stroke-opacity:1;stroke-miterlimit:10;" d="M 116.171875 208.257812 L 96.828125 201.304688 "/>
<path style="fill:none;stroke-width:1.2;stroke-linecap:butt;stroke-linejoin:miter;stroke:rgb(0%,0%,0%);stroke-opacity:1;stroke-miterlimit:10;" d="M 92.363281 206.125 L 87.800781 180.835938 "/>
<path style="fill:none;stroke-width:1.2;stroke-linecap:butt;stroke-linejoin:miter;stroke:rgb(0%,0%,0%);stroke-opacity:1;stroke-miterlimit:10;" d="M 87.800781 180.835938 L 107.421875 164.242188 "/>
<path style="fill:none;stroke-width:1.2;stroke-linecap:butt;stroke-linejoin:miter;stroke:rgb(0%,0%,0%);stroke-opacity:1;stroke-miterlimit:10;" d="M 93.667969 183.792969 L 109.363281 170.515625 "/>
<path style="fill:none;stroke-width:1.2;stroke-linecap:butt;stroke-linejoin:miter;stroke:rgb(0%,0%,0%);stroke-opacity:1;stroke-miterlimit:10;" d="M 119.316406 136.824219 L 115.777344 143.535156 "/>
<path style="fill:none;stroke-width:1.2;stroke-linecap:butt;stroke-linejoin:miter;stroke:rgb(100%,0%,0%);stroke-opacity:1;stroke-miterlimit:10;" d="M 115.777344 143.535156 L 112.242188 150.246094 "/>
<path style="fill:none;stroke-width:1.2;stroke-linecap:butt;stroke-linejoin:miter;stroke:rgb(0%,0%,0%);stroke-opacity:1;stroke-miterlimit:10;" d="M 124.664062 139.640625 L 121.128906 146.351562 "/>
<path style="fill:none;stroke-width:1.2;stroke-linecap:butt;stroke-linejoin:miter;stroke:rgb(100%,0%,0%);stroke-opacity:1;stroke-miterlimit:10;" d="M 121.128906 146.351562 L 117.59375 153.066406 "/>
<path style="fill:none;stroke-width:1.2;stroke-linecap:butt;stroke-linejoin:miter;stroke:rgb(0%,0%,0%);stroke-opacity:1;stroke-miterlimit:10;" d="M 121.988281 138.230469 L 112.710938 129.34375 "/>
<path style="fill:none;stroke-width:1.2;stroke-linecap:butt;stroke-linejoin:miter;stroke:rgb(0%,0%,100%);stroke-opacity:1;stroke-miterlimit:10;" d="M 112.710938 129.34375 L 103.433594 120.453125 "/>
<path style=" stroke:none;fill-rule:nonzero;fill:rgb(100%,100%,100%);fill-opacity:1;" d="M 105.917969 145.15625 L 114.917969 145.15625 L 114.917969 158.15625 L 105.917969 158.15625 Z M 105.917969 145.15625 "/>
<g style="fill:rgb(100%,0%,0%);fill-opacity:1;">
  <use xlink:href="#glyph0-2" x="105.917969" y="155.057617"/>
</g>
<path style="fill:none;stroke-width:1.2;stroke-linecap:butt;stroke-linejoin:miter;stroke:rgb(0%,0%,100%);stroke-opacity:1;stroke-miterlimit:10;" d="M 103.433594 120.453125 L 91.097656 124.042969 "/>
<path style="fill:none;stroke-width:1.2;stroke-linecap:butt;stroke-linejoin:miter;stroke:rgb(0%,0%,0%);stroke-opacity:1;stroke-miterlimit:10;" d="M 91.097656 124.042969 L 78.761719 127.632812 "/>
<path style=" stroke:none;fill-rule:nonzero;fill:rgb(100%,100%,100%);fill-opacity:1;" d="M 95.433594 113.953125 L 112.433594 113.953125 L 112.433594 126.953125 L 95.433594 126.953125 Z M 95.433594 113.953125 "/>
<g style="fill:rgb(0%,0%,100%);fill-opacity:1;">
  <use xlink:href="#glyph0-1" x="95.433594" y="123.854492"/>
  <use xlink:href="#glyph0-3" x="103.416992" y="123.854492"/>
</g>
<path style="fill:none;stroke-width:1.2;stroke-linecap:butt;stroke-linejoin:miter;stroke:rgb(0%,0%,0%);stroke-opacity:1;stroke-miterlimit:10;" d="M 78.761719 127.632812 L 60.207031 109.855469 "/>
<path style="fill:none;stroke-width:1.2;stroke-linecap:butt;stroke-linejoin:miter;stroke:rgb(0%,0%,0%);stroke-opacity:1;stroke-miterlimit:10;" d="M 60.207031 109.855469 L 35.25 103.734375 "/>
<path style="fill:none;stroke-width:1.2;stroke-linecap:butt;stroke-linejoin:miter;stroke:rgb(0%,0%,0%);stroke-opacity:1;stroke-miterlimit:10;" d="M 53.027344 85.179688 L 60.207031 109.855469 "/>
<path style="fill:none;stroke-width:1.2;stroke-linecap:butt;stroke-linejoin:miter;stroke:rgb(0%,0%,0%);stroke-opacity:1;stroke-miterlimit:10;" d="M 35.25 103.734375 L 53.027344 85.179688 "/>
</g>
</svg>

<svg xmlns="http://www.w3.org/2000/svg" xmlns:xlink="http://www.w3.org/1999/xlink" width="300pt" height="300pt" viewBox="0 0 300 300"><defs><symbol overflow="visible"><path d="M.547 1.938V-7.75h5.5v9.688zm.625-.61h4.266v-8.47H1.171zm0 0"/></symbol><symbol overflow="visible" id="a"><path d="M1.078-8.016h1.47l3.546 6.704v-6.704h1.062V0H5.688L2.124-6.703V0H1.078zm0 0"/></symbol><symbol overflow="visible" id="b"><path d="M4.328-7.28c-.78 0-1.406.296-1.875.89-.46.585-.687 1.382-.687 2.39 0 1.012.226 1.813.687 2.406.47.586 1.094.875 1.875.875.79 0 1.414-.288 1.875-.874.457-.593.688-1.394.688-2.406 0-1.008-.23-1.805-.687-2.39-.46-.594-1.086-.89-1.875-.89zm0-.892c1.125 0 2.024.383 2.703 1.14C7.708-6.28 8.048-5.27 8.048-4c0 1.262-.34 2.273-1.016 3.03C6.353-.22 5.454.157 4.33.157S2.3-.22 1.625-.97c-.668-.75-1-1.757-1-3.03 0-1.27.332-2.28 1-3.03.676-.76 1.578-1.142 2.703-1.142zm0 0"/></symbol><symbol overflow="visible" id="c"><path d="M1.078-8.016h1.094v3.282H6.11v-3.282h1.077V0H6.11v-3.813H2.17V0H1.078zm0 0"/></symbol></defs><g><path fill="#fff" d="M0 0h300v300H0z"/><path d="M178.41 104.203l25.5-5.523-3.43-8.395zm0 0"/><path d="M178.41 104.203l-21.847-13.53" stroke-width="1.2" stroke="#000" stroke-miterlimit="10" fill="none"/><path d="M172.29 129.16l3.058-12.48" stroke-width="1.2" stroke="#00f" stroke-miterlimit="10" fill="none"/><path d="M175.348 116.68l3.062-12.477M156.563 90.672l-19.618 16.594M158.508 96.945l-15.7 13.278M136.945 107.266l9.72 23.785M146.664 131.05l12.813-.945" stroke-width="1.2" stroke="#000" stroke-miterlimit="10" fill="none"/><path d="M159.477 130.105l12.812-.945" stroke-width="1.2" stroke="#00f" stroke-miterlimit="10" fill="none"/><path d="M146.664 131.05m.012 3l1.023-.183m-1.016 3.184l2.054-.366m-2.043 3.367l3.078-.554m-3.066 3.555l4.106-.738m-4.094 3.74l5.132-.923m-5.122 3.92l6.157-1.11m-6.145 4.11l7.184-1.292m-7.172 4.293l8.207-1.48m-8.198 3.575l8.925-1.61" stroke="#000" stroke-miterlimit="10" fill="none"/><path d="M146.664 131.05l-24.676 7.18" stroke-width="1.2" stroke="#000" stroke-miterlimit="10" fill="none"/><path d="M172.29 129.16l8.296 9.81" stroke-width="1.2" stroke="#00f" stroke-miterlimit="10" fill="none"/><path d="M180.586 138.97l8.297 9.81" stroke-width="1.2" stroke="#000" stroke-miterlimit="10" fill="none"/><path d="M168.29 122.66h8v13h-8zm0 0" fill="#fff"/><use xlink:href="#a" x="168.289" y="132.562" fill="#00f"/><path d="M186.04 147.758l-4.35 12.09" stroke-width="1.2" stroke="#000" stroke-miterlimit="10" fill="none"/><path d="M181.69 159.848l-4.346 12.09" stroke-width="1.2" stroke="#f00" stroke-miterlimit="10" fill="none"/><path d="M191.73 149.805l-4.347 12.09" stroke-width="1.2" stroke="#000" stroke-miterlimit="10" fill="none"/><path d="M187.383 161.895l-4.348 12.09" stroke-width="1.2" stroke="#f00" stroke-miterlimit="10" fill="none"/><path d="M188.883 148.78l25.29-4.56" stroke-width="1.2" stroke="#000" stroke-miterlimit="10" fill="none"/><path d="M171.19 166.46h9v13h-9zm0 0" fill="#fff"/><use xlink:href="#b" x="171.191" y="176.362" fill="#f00"/><path d="M214.172 144.22l16.594 19.62M220.45 142.277l13.273 15.696M222.867 120.04l-8.695 24.18M230.766 163.84l25.29-4.563M256.055 159.277l8.695-24.18M251.234 154.816l6.957-19.347M264.75 135.098l-16.594-19.62M248.156 115.477l-25.29 4.562M246.7 121.883l-20.23 3.648M151.223 156.34l-19.62 16.594M131.602 172.934l4.562 25.29M126.11 176.54l3.648 20.23M107.422 164.242l24.18 8.692M136.164 198.223l-19.62 16.597M116.543 214.82l-24.18-8.695M116.172 208.258l-19.344-6.953M92.363 206.125l-4.562-25.29M87.8 180.836l19.622-16.594M93.668 183.793l15.695-13.277M119.316 136.824l-3.54 6.71" stroke-width="1.2" stroke="#000" stroke-miterlimit="10" fill="none"/><path d="M115.777 143.535l-3.535 6.71" stroke-width="1.2" stroke="#f00" stroke-miterlimit="10" fill="none"/><path d="M124.664 139.64l-3.535 6.712" stroke-width="1.2" stroke="#000" stroke-miterlimit="10" fill="none"/><path d="M121.13 146.352l-3.536 6.714" stroke-width="1.2" stroke="#f00" stroke-miterlimit="10" fill="none"/><path d="M121.988 138.23l-9.277-8.886" stroke-width="1.2" stroke="#000" stroke-miterlimit="10" fill="none"/><path d="M112.71 129.344l-9.276-8.89" stroke-width="1.2" stroke="#00f" stroke-miterlimit="10" fill="none"/><path d="M105.918 145.156h9v13h-9zm0 0" fill="#fff"/><use xlink:href="#b" x="105.918" y="155.058" fill="#f00"/><path d="M103.434 120.453l-12.336 3.59" stroke-width="1.2" stroke="#00f" stroke-miterlimit="10" fill="none"/><path d="M91.098 124.043l-12.336 3.59" stroke-width="1.2" stroke="#000" stroke-miterlimit="10" fill="none"/><path d="M95.434 113.953h17v13h-17zm0 0" fill="#fff"/><g fill="#00f"><use xlink:href="#a" x="95.434" y="123.854"/><use xlink:href="#c" x="103.417" y="123.854"/></g><path d="M78.762 127.633l-18.555-17.778M60.207 109.855l-24.957-6.12M53.027 85.18l7.18 24.675M35.25 103.734L53.027 85.18" stroke-width="1.2" stroke="#000" stroke-miterlimit="10" fill="none"/></g></svg>
